;FLAVOR:Marlin
;TIME:5510
;Filament used: 2.80713m
;Layer height: 0.35
;Generated with Cura_SteamEngine 3.2.1
G1 Z5 F200
M104 S205
M109 S205
M82 ;absolute extrusion mode
G21 ; set units to millimeters
G28 Z0
;LAYER_COUNT:72
;LAYER:0
M107
G0 F900 X8.665 Y6.314 Z0.3
;TYPE:SKIRT
G1 F600 X8.992 Y5.964 E0.02115
G1 X9.373 Y5.674 E0.04229
G1 X9.797 Y5.45 E0.06347
G1 X10.252 Y5.301 E0.08461
G1 X10.921 Y5.222 E0.11436
G1 X12.84 Y5.223 E0.19909
G1 X13.327 Y5.265 E0.22068
G1 X16.319 Y5.781 E0.35475
G1 X21.796 Y6.481 E0.59856
G1 X27.275 Y6.868 E0.8411
G1 X32.781 Y6.946 E1.08426
G1 X38.249 Y6.713 E1.32593
G1 X43.729 Y6.169 E1.5691
G1 X49.518 Y5.259 E1.82786
G1 X49.963 Y5.224 E1.84757
G1 X51.9 Y5.223 E1.9331
G1 X52.377 Y5.263 E1.95424
G1 X52.841 Y5.381 E1.97538
G1 X53.28 Y5.575 E1.99658
G1 X53.679 Y5.839 E2.0177
G1 X54.03 Y6.166 E2.03889
G1 X54.321 Y6.546 E2.06002
G1 X54.545 Y6.97 E2.08119
G1 X54.696 Y7.425 E2.10236
G1 X54.776 Y8.101 E2.13242
G1 X54.774 Y10.226 E2.22626
G1 X54.767 Y10.426 E2.23509
G1 X54.371 Y16.024 E2.4829
G1 X54.285 Y20.104 E2.6631
G1 X54.275 Y28.183 E3.01985
G1 X54.234 Y28.66 E3.04099
G1 X54.115 Y29.124 E3.06214
G1 X53.921 Y29.562 E3.08329
G1 X53.656 Y29.961 E3.10445
G1 X53.328 Y30.311 E3.12563
G1 X52.948 Y30.602 E3.14676
G1 X52.524 Y30.825 E3.16792
G1 X52.069 Y30.975 E3.18907
G1 X51.4 Y31.054 E3.21882
G1 X11.419 Y31.054 E4.98426
G1 X10.942 Y31.014 E5.0054
G1 X10.477 Y30.895 E5.02659
G1 X10.039 Y30.701 E5.04775
G1 X9.639 Y30.437 E5.06891
G1 X9.289 Y30.11 E5.09006
G1 X8.998 Y29.73 E5.1112
G1 X8.774 Y29.306 E5.13237
G1 X8.624 Y28.851 E5.15353
G1 X8.544 Y28.182 E5.18328
G1 X8.535 Y20.15 E5.53795
G1 X8.378 Y14.589 E5.7836
G1 X8.051 Y10.366 E5.97064
G1 X8.042 Y10.14 E5.98063
G1 X8.045 Y8.093 E6.07101
G1 X8.086 Y7.615 E6.0922
G1 X8.205 Y7.151 E6.11335
G1 X8.4 Y6.713 E6.13452
G1 X8.665 Y6.314 E6.15567
G0 F900 X9.011 Y6.444
G1 F600 X9.334 Y6.132 E6.1755
G1 X9.707 Y5.882 E6.19533
G1 X10.119 Y5.703 E6.21517
G1 X10.555 Y5.598 E6.23497
G1 X10.921 Y5.572 E6.25117
G1 X12.84 Y5.573 E6.33591
G1 X13.268 Y5.61 E6.35488
G1 X16.262 Y6.126 E6.48903
G1 X21.764 Y6.829 E6.73396
G1 X27.262 Y7.218 E6.97735
G1 X32.773 Y7.296 E7.22072
G1 X38.281 Y7.061 E7.46416
G1 X43.783 Y6.515 E7.7083
G1 X49.572 Y5.605 E7.96707
G1 X49.963 Y5.574 E7.98439
G1 X51.9 Y5.573 E8.06992
G1 X52.347 Y5.613 E8.08974
G1 X52.78 Y5.731 E8.10956
G1 X53.185 Y5.924 E8.12937
G1 X53.55 Y6.186 E8.14921
G1 X53.863 Y6.508 E8.16903
G1 X54.113 Y6.881 E8.18886
G1 X54.294 Y7.292 E8.20869
G1 X54.399 Y7.729 E8.22854
G1 X54.426 Y8.1 E8.24496
G1 X54.424 Y10.225 E8.3388
G1 X54.418 Y10.401 E8.34657
G1 X54.021 Y16.012 E8.59496
G1 X53.935 Y20.103 E8.77565
G1 X53.925 Y28.182 E9.13239
G1 X53.885 Y28.629 E9.15221
G1 X53.765 Y29.062 E9.17205
G1 X53.572 Y29.467 E9.19186
G1 X53.309 Y29.832 E9.21173
G1 X52.986 Y30.144 E9.23156
G1 X52.613 Y30.393 E9.25136
G1 X52.202 Y30.573 E9.27117
G1 X51.765 Y30.677 E9.29101
G1 X51.4 Y30.704 E9.30717
G1 X11.419 Y30.704 E11.07262
G1 X10.972 Y30.664 E11.09243
G1 X10.539 Y30.546 E11.11225
G1 X10.133 Y30.352 E11.13212
G1 X9.769 Y30.09 E11.15192
G1 X9.456 Y29.768 E11.17175
G1 X9.206 Y29.395 E11.19158
G1 X9.026 Y28.984 E11.21139
G1 X8.921 Y28.547 E11.23124
G1 X8.894 Y28.182 E11.2474
G1 X8.885 Y20.14 E11.60251
G1 X8.727 Y14.573 E11.84843
G1 X8.4 Y10.339 E12.03595
G1 X8.392 Y10.14 E12.04475
G1 X8.395 Y8.093 E12.13514
G1 X8.436 Y7.646 E12.15496
G1 X8.555 Y7.213 E12.17479
G1 X8.749 Y6.808 E12.19462
G1 X9.011 Y6.444 E12.21442
G0 F900 X9.097 Y6.91
G1 F600 X9.357 Y6.585 E12.2328
G1 X9.674 Y6.314 E12.25121
G1 X10.037 Y6.109 E12.26962
G1 X10.432 Y5.977 E12.28801
G1 X10.921 Y5.922 E12.30974
G1 X12.84 Y5.923 E12.39448
G1 X13.208 Y5.955 E12.41079
G1 X16.224 Y6.475 E12.54593
G1 X21.714 Y7.176 E12.79032
G1 X27.25 Y7.568 E13.03539
G1 X32.783 Y7.646 E13.27974
G1 X38.313 Y7.41 E13.52415
G1 X43.8 Y6.865 E13.76763
G1 X49.626 Y5.95 E14.02804
G1 X49.963 Y5.924 E14.04297
G1 X51.9 Y5.923 E14.1285
G1 X52.315 Y5.963 E14.14691
G1 X52.714 Y6.081 E14.16528
G1 X53.084 Y6.273 E14.18369
G1 X53.41 Y6.532 E14.20208
G1 X53.681 Y6.848 E14.22046
G1 X53.887 Y7.211 E14.23889
G1 X54.02 Y7.606 E14.25729
G1 X54.076 Y8.1 E14.27925
G1 X54.074 Y10.225 E14.37308
G1 X54.069 Y10.376 E14.37975
G1 X53.673 Y15.98 E14.62782
G1 X53.585 Y20.146 E14.81182
G1 X53.575 Y28.182 E15.16667
G1 X53.535 Y28.596 E15.18504
G1 X53.416 Y28.996 E15.20347
G1 X53.223 Y29.365 E15.22185
G1 X52.963 Y29.691 E15.24027
G1 X52.646 Y29.961 E15.25865
G1 X52.284 Y30.166 E15.27702
G1 X51.889 Y30.298 E15.29541
G1 X51.4 Y30.354 E15.31715
G1 X11.419 Y30.354 E17.08259
G1 X11.004 Y30.314 E17.101
G1 X10.605 Y30.196 E17.11938
G1 X10.235 Y30.004 E17.13778
G1 X9.909 Y29.744 E17.1562
G1 X9.638 Y29.428 E17.17458
G1 X9.433 Y29.065 E17.19299
G1 X9.3 Y28.67 E17.21139
G1 X9.244 Y28.181 E17.23313
G1 X9.235 Y20.131 E17.58859
G1 X9.078 Y14.576 E17.83398
G1 X8.748 Y10.312 E18.02283
G1 X8.742 Y10.141 E18.03039
G1 X8.745 Y8.094 E18.12078
G1 X8.786 Y7.679 E18.13919
G1 X8.904 Y7.28 E18.15756
G1 X9.097 Y6.91 E18.17599
G1 F1500 E11.67599
G0 F900 X10.245 Y8.277
G0 X11.099 Y8.277
G0 X14.029 Y11.384
G0 X13.986 Y11.473
;TYPE:WALL-OUTER
G1 F1500 E18.17599
G1 F600 X11.085 Y10.101 E18.3177
G1 X11.085 Y8.263 E18.39886
G1 X12.805 Y8.263 E18.47481
G1 X14.235 Y8.94 E18.54467
G1 X14.235 Y11.315 E18.64954
G1 X14.235 Y11.316 E18.64959
G1 X14.235 Y11.591 E18.66173
G1 X13.986 Y11.473 E18.66875
G0 F900 X13.828 Y11.399
G0 X13.895 Y11.054
;TYPE:SKIN
G1 F600 X11.425 Y9.885 E18.78942
G1 X11.425 Y8.603 E18.84603
G1 X12.729 Y8.603 E18.90361
G1 X13.895 Y9.155 E18.96058
G1 X13.895 Y11.054 E19.04443
G0 F900 X13.736 Y9.281
G1 F600 X13.685 Y9.23 E19.04762
G0 F900 X13.736 Y9.776
G1 F600 X12.744 Y8.785 E19.10953
G1 X12.683 Y8.724
G0 F900 X12.225 Y8.761
G1 F600 X13.736 Y10.271 E19.20386
G1 X13.797 Y10.332
G0 F900 X13.736 Y10.766
G1 F600 X11.73 Y8.761 E19.3291
G1 X11.669 Y8.7
G0 F900 X11.582 Y9.107
G1 F600 X12.868 Y10.393 E19.40941
G1 X12.929 Y10.454
G0 F900 X11.928 Y9.948
G1 F600 X11.582 Y9.602 E19.43101
G1 F1500 E12.93101
G0 F900 X14.225 Y11.575
G0 X15.075 Y11.575
G0 X40.157 Y14.661
G0 X40.323 Y15.505
G0 X44.698 Y14.492
G0 X44.669 Y14.397
;TYPE:WALL-OUTER
G1 F1500 E19.43101
G1 F600 X47.502 Y13.383 E19.56388
G1 X47.735 Y13.3 E19.5748
G1 X47.735 Y13.547 E19.58126
G1 X47.735 Y13.548 E19.58131
G1 X47.735 Y24.013 E20.04341
G1 X15.085 Y24.013 E21.48514
G1 X15.085 Y13.548 E21.94725
G1 X15.085 Y13.547 E21.94729
G1 X15.085 Y13.3 E21.9582
G1 X15.318 Y13.383 E21.96466
G1 X18.151 Y14.397 E22.09753
G1 X22.499 Y15.486 E22.29546
G1 X26.933 Y16.143 E22.49339
G1 X31.41 Y16.363 E22.69132
G1 X35.887 Y16.143 E22.88925
G1 X40.32 Y15.486 E23.08714
G1 X44.669 Y14.397 E23.2851
G0 F900 X44.833 Y14.339
G0 X44.768 Y14.723
;TYPE:SKIN
G1 F600 X47.395 Y13.783 E23.40831
G1 X47.395 Y23.673 E23.84502
G1 X15.425 Y23.673 E25.25673
G1 X15.425 Y13.783 E25.69344
G1 X18.052 Y14.723 E25.81664
G1 X22.433 Y15.82 E26.01607
G1 X26.9 Y16.481 E26.21547
G1 X31.41 Y16.703 E26.41486
G1 X35.92 Y16.481 E26.61424
G1 X40.386 Y15.82 E26.8136
G1 X44.768 Y14.723 E27.01307
G0 F900 X46.823 Y14.155
G1 F600 X47.236 Y14.567 E27.03883
G0 F900 X47.236 Y15.062
G1 F600 X46.459 Y14.286 E27.08732
G1 X46.398 Y14.225
G0 F900 X46.094 Y14.416
G1 F600 X47.236 Y15.557 E27.1586
G1 X47.297 Y15.618
G0 F900 X47.236 Y16.052
G1 F600 X45.73 Y14.546 E27.25265
G1 X45.669 Y14.485
G0 F900 X45.365 Y14.677
G1 F600 X47.236 Y16.547 E27.36946
G1 X47.297 Y16.608
G0 F900 X47.236 Y17.042
G1 F600 X45 Y14.807 E27.50906
G1 X44.939 Y14.746
G0 F900 X44.621 Y14.922
G1 F600 X47.236 Y17.537 E27.67236
G1 X47.297 Y17.598
G0 F900 X47.236 Y18.032
G1 F600 X44.225 Y15.021 E27.86039
G1 X44.164 Y14.96
G0 F900 X43.829 Y15.12
G1 F600 X47.236 Y18.527 E28.07315
G1 X47.297 Y18.588
G0 F900 X47.236 Y19.022
G1 F600 X43.434 Y15.22 E28.31057
G1 X43.373 Y15.159
G0 F900 X43.038 Y15.319
G1 F600 X47.236 Y19.517 E28.57273
G1 X47.297 Y19.578
G0 F900 X47.236 Y20.012
G1 F600 X42.642 Y15.418 E28.85961
G1 X42.581 Y15.357
G0 F900 X42.246 Y15.517
G1 F600 X47.236 Y20.507 E29.17123
G1 X47.297 Y20.568
G0 F900 X47.236 Y21.002
G1 F600 X41.85 Y15.616 E29.50757
G1 X41.789 Y15.555
G0 F900 X41.454 Y15.715
G1 F600 X47.236 Y21.497 E29.86864
G1 X47.297 Y21.558
G0 F900 X47.236 Y21.992
G1 F600 X41.058 Y15.814 E30.25444
G1 X40.997 Y15.753
G0 F900 X40.662 Y15.914
G1 F600 X47.236 Y22.487 E30.66494
G1 X47.297 Y22.548
G0 F900 X47.236 Y22.982
G1 F600 X40.253 Y15.999 E31.10101
G1 X40.192 Y15.938
G0 F900 X39.822 Y16.063
G1 F600 X47.236 Y23.477 E31.564
G1 X47.297 Y23.538
G0 F900 X46.778 Y23.514
G1 F600 X39.39 Y16.126 E32.02536
G1 X39.329 Y16.065
G0 F900 X38.959 Y16.19
G1 F600 X46.283 Y23.514 E32.48273
G1 X46.344 Y23.575
G0 F900 X45.788 Y23.514
G1 F600 X38.528 Y16.254 E32.9361
G1 X38.467 Y16.193
G0 F900 X38.096 Y16.317
G1 F600 X45.293 Y23.514 E33.38553
G1 X45.354 Y23.575
G0 F900 X44.798 Y23.514
G1 F600 X37.666 Y16.382 E33.83091
G1 X37.605 Y16.321
G0 F900 X37.234 Y16.445
G1 F600 X44.303 Y23.514 E34.27235
G1 X44.364 Y23.575
G0 F900 X43.808 Y23.514
G1 F600 X36.803 Y16.509 E34.7098
G1 X36.742 Y16.448
G0 F900 X36.372 Y16.573
G1 F600 X43.313 Y23.514 E35.14325
G1 X43.374 Y23.575
G0 F900 X42.818 Y23.514
G1 F600 X35.94 Y16.636 E35.57276
G1 X35.879 Y16.575
G0 F900 X35.469 Y16.66
G1 F600 X42.323 Y23.514 E36.00078
G1 X42.384 Y23.575
G0 F900 X41.828 Y23.514
G1 F600 X34.998 Y16.684 E36.4273
G1 X34.937 Y16.623
G0 F900 X34.526 Y16.707
G1 F600 X41.333 Y23.514 E36.85238
G1 X41.394 Y23.575
G0 F900 X40.838 Y23.514
G1 F600 X34.054 Y16.73 E37.27602
G1 X33.993 Y16.669
G0 F900 X33.583 Y16.754
G1 F600 X40.343 Y23.514 E37.69817
G1 X40.404 Y23.575
G0 F900 X39.849 Y23.514
G1 F600 X33.111 Y16.777 E38.11891
G1 X33.05 Y16.716
G0 F900 X32.64 Y16.8
G1 F600 X39.354 Y23.514 E38.53818
G1 X39.415 Y23.575
G0 F900 X38.859 Y23.514
G1 F600 X32.168 Y16.824 E38.95599
G1 X32.107 Y16.763
G0 F900 X31.696 Y16.846
G1 F600 X38.364 Y23.514 E39.37239
G1 X38.425 Y23.575
G0 F900 X37.869 Y23.514
G1 F600 X31.205 Y16.851 E39.78851
G1 X31.144 Y16.79
G0 F900 X30.684 Y16.825
G1 F600 X37.374 Y23.514 E40.20625
G1 X37.435 Y23.575
G0 F900 X36.879 Y23.514
G1 F600 X30.164 Y16.8 E40.62556
G1 X30.103 Y16.739
G0 F900 X29.644 Y16.774
G1 F600 X36.384 Y23.514 E41.04645
G1 X36.445 Y23.575
G0 F900 X35.889 Y23.514
G1 F600 X29.122 Y16.748 E41.469
G1 X29.061 Y16.687
G0 F900 X28.602 Y16.723
G1 F600 X35.394 Y23.514 E41.89312
G1 X35.455 Y23.575
G0 F900 X34.899 Y23.514
G1 F600 X28.082 Y16.697 E42.31882
G1 X28.021 Y16.636
G0 F900 X27.561 Y16.672
G1 F600 X34.404 Y23.514 E42.74612
G1 X34.465 Y23.575
G0 F900 X33.909 Y23.514
G1 F600 X27.04 Y16.646 E43.17504
G1 X26.979 Y16.585
G0 F900 X26.477 Y16.578
G1 F600 X33.414 Y23.514 E43.60821
G1 X33.475 Y23.575
G0 F900 X32.919 Y23.514
G1 F600 X25.897 Y16.492 E44.04672
G1 X25.836 Y16.431
G0 F900 X25.315 Y16.406
G1 F600 X32.424 Y23.514 E44.49063
G1 X32.485 Y23.575
G0 F900 X31.929 Y23.514
G1 F600 X24.735 Y16.32 E44.93988
G1 X24.674 Y16.259
G0 F900 X24.154 Y16.234
G1 F600 X31.434 Y23.514 E45.39449
G1 X31.495 Y23.575
G0 F900 X30.938 Y23.514
G1 F600 X23.573 Y16.148 E45.85445
G1 X23.512 Y16.087
G0 F900 X22.992 Y16.062
G1 F600 X30.443 Y23.514 E46.31978
G1 X30.504 Y23.575
G0 F900 X29.948 Y23.514
G1 F600 X22.411 Y15.977 E46.79045
G1 X22.35 Y15.916
G0 F900 X21.752 Y15.813
G1 F600 X29.453 Y23.514 E47.27136
G1 X29.514 Y23.575
G0 F900 X28.958 Y23.514
G1 F600 X21.092 Y15.648 E47.76257
G1 X21.031 Y15.587
G0 F900 X20.432 Y15.482
G1 F600 X28.463 Y23.514 E48.26412
G1 X28.524 Y23.575
G0 F900 X27.968 Y23.514
G1 F600 X19.772 Y15.317 E48.77597
G1 X19.711 Y15.256
G0 F900 X19.112 Y15.152
G1 F600 X27.473 Y23.514 E49.29813
G1 X27.534 Y23.575
G0 F900 X26.978 Y23.514
G1 F600 X18.451 Y14.987 E49.83062
G1 X18.39 Y14.926
G0 F900 X17.755 Y14.785
G1 F600 X26.483 Y23.514 E50.37569
G1 X26.544 Y23.575
G0 F900 X25.989 Y23.514
G1 F600 X16.984 Y14.509 E50.93803
G1 X16.923 Y14.448
G0 F900 X16.213 Y14.234
G1 F600 X25.494 Y23.514 E51.51758
G1 X25.555 Y23.575
G0 F900 X24.999 Y23.514
G1 F600 X15.581 Y14.096 E52.10571
G1 X15.52 Y14.035
G0 F900 X15.581 Y14.591
G1 F600 X24.504 Y23.514 E52.66293
G1 X24.565 Y23.575
G0 F900 X24.009 Y23.514
G1 F600 X15.581 Y15.086 E53.18924
G1 X15.52 Y15.025
G0 F900 X15.581 Y15.581
G1 F600 X23.514 Y23.514 E53.68463
G1 X23.575 Y23.575
G0 F900 X23.019 Y23.514
G1 F600 X15.581 Y16.076 E54.14912
G1 X15.52 Y16.015
G0 F900 X15.581 Y16.571
G1 F600 X22.524 Y23.514 E54.58269
G1 X22.585 Y23.575
G0 F900 X22.029 Y23.514
G1 F600 X15.581 Y17.066 E54.98536
G1 X15.52 Y17.005
G0 F900 X15.581 Y17.561
G1 F600 X21.534 Y23.514 E55.35711
G1 X21.595 Y23.575
G0 F900 X21.039 Y23.514
G1 F600 X15.581 Y18.056 E55.69795
G1 X15.52 Y17.995
G0 F900 X15.581 Y18.551
G1 F600 X20.544 Y23.514 E56.00787
G1 X20.605 Y23.575
G0 F900 X20.049 Y23.514
G1 F600 X15.582 Y19.047 E56.28683
G1 X15.521 Y18.986
G0 F900 X15.582 Y19.542
G1 F600 X19.554 Y23.514 E56.53487
G1 X19.615 Y23.575
G0 F900 X19.059 Y23.514
G1 F600 X15.582 Y20.037 E56.752
G1 X15.521 Y19.976
G0 F900 X15.582 Y20.532
G1 F600 X18.564 Y23.514 E56.93822
G1 X18.625 Y23.575
G0 F900 X18.069 Y23.514
G1 F600 X15.582 Y21.027 E57.09353
G1 X15.521 Y20.966
G0 F900 X15.582 Y21.522
G1 F600 X17.574 Y23.514 E57.21792
G1 X17.635 Y23.575
G0 F900 X17.079 Y23.514
G1 F600 X15.582 Y22.017 E57.31141
G1 X15.521 Y21.956
G0 F900 X15.582 Y22.512
G1 F600 X16.584 Y23.514 E57.37398
G1 X16.645 Y23.575
G0 F900 X16.089 Y23.514
G1 F600 X15.582 Y23.007 E57.40564
G1 X15.521 Y22.946
G1 F1500 E50.90564
G0 F900 X18.14 Y14.435
G0 X18.394 Y13.592
G0 X15.068 Y8.412
G0 X12.992 Y7.424
G0 X10.257 Y7.435
G0 X10.254 Y10.021
G0 X10.745 Y22.052
G0 X11.625 Y22.052
G0 X14.165 Y25.433
G0 X14.235 Y25.363
;TYPE:WALL-OUTER
G1 F1500 E57.40564
G1 F600 X48.585 Y25.363 E58.92244
G1 X48.585 Y12.465 E59.49198
G1 X48.698 Y12.425 E59.49727
G1 X50.986 Y11.342 E59.60905
G1 X51.235 Y11.224 E59.62121
G1 X51.235 Y11.499 E59.62822
G1 X51.235 Y11.5 E59.62827
G1 X51.235 Y28.013 E60.35743
G1 X11.585 Y28.013 E62.10827
G1 X11.585 Y11.5 E62.83743
G1 X11.585 Y11.499 E62.83748
G1 X11.585 Y11.224 E62.84962
G1 X11.834 Y11.342 E62.85664
G1 X14.122 Y12.425 E62.96842
G1 X14.235 Y12.465 E62.97371
G1 X14.235 Y25.363 E63.54325
G0 F900 X14.41 Y25.363
G0 X13.895 Y25.703
;TYPE:SKIN
G1 F600 X48.925 Y25.703 E65.09008
G1 X48.925 Y12.693 E65.66456
G1 X50.895 Y11.761 E65.7608
G1 X50.895 Y27.673 E66.46342
G1 X11.925 Y27.673 E68.18423
G1 X11.925 Y11.761 E68.88686
G1 X13.895 Y12.693 E68.98309
G1 X13.895 Y25.703 E69.55757
G0 F900 X12.17 Y27.514
G0 X12.126 Y27.47
G1 F600 X12.373 Y27.222 E69.57846
G1 X12.726 Y27.575
G0 F900 X13.16 Y27.514
G1 F600 X12.082 Y26.436 E69.64578
G1 X12.021 Y26.375
G0 F900 X12.082 Y25.941
G1 F600 X13.655 Y27.514 E69.74401
G1 X13.716 Y27.575
G0 F900 X14.15 Y27.514
G1 F600 X12.082 Y25.446 E69.87315
G1 X12.021 Y25.385
G0 F900 X12.082 Y24.951
G1 F600 X14.645 Y27.514 E70.0332
G1 X14.706 Y27.575
G0 F900 X15.14 Y27.514
G1 F600 X12.082 Y24.456 E70.22417
G1 X12.021 Y24.395
G0 F900 X12.082 Y23.961
G1 F600 X13.737 Y25.617 E70.32755
G1 X13.798 Y25.678
G0 F900 X13.981 Y25.861
G1 F600 X15.635 Y27.514 E70.43081
G1 X15.696 Y27.575
G0 F900 X16.13 Y27.514
G1 F600 X14.476 Y25.861 E70.53407
G1 X14.415 Y25.8
G0 F900 X14.971 Y25.861
G1 F600 X16.625 Y27.514 E70.63732
G1 X16.686 Y27.575
G0 F900 X17.12 Y27.514
G1 F600 X15.466 Y25.861 E70.74058
G1 X15.405 Y25.8
G0 F900 X15.961 Y25.861
G1 F600 X17.615 Y27.514 E70.84384
G1 X17.676 Y27.575
G0 F900 X18.11 Y27.514
G1 F600 X16.456 Y25.861 E70.94709
G1 X16.395 Y25.8
G0 F900 X16.951 Y25.861
G1 F600 X18.605 Y27.514 E71.05035
G1 X18.666 Y27.575
G0 F900 X19.1 Y27.514
G1 F600 X17.446 Y25.861 E71.15361
G1 X17.385 Y25.8
G0 F900 X17.941 Y25.861
G1 F600 X19.595 Y27.514 E71.25687
G1 X19.656 Y27.575
G0 F900 X20.09 Y27.514
G1 F600 X18.436 Y25.861 E71.36012
G1 X18.375 Y25.8
G0 F900 X18.931 Y25.861
G1 F600 X20.585 Y27.514 E71.46338
G1 X20.646 Y27.575
G0 F900 X21.08 Y27.514
G1 F600 X19.426 Y25.861 E71.56664
G1 X19.365 Y25.8
G0 F900 X19.921 Y25.861
G1 F600 X21.575 Y27.514 E71.66989
G1 X21.636 Y27.575
G0 F900 X22.07 Y27.514
G1 F600 X20.416 Y25.861 E71.77315
G1 X20.355 Y25.8
G0 F900 X20.911 Y25.861
G1 F600 X22.565 Y27.514 E71.87641
G1 X22.626 Y27.575
G0 F900 X23.06 Y27.514
G1 F600 X21.406 Y25.861 E71.97967
G1 X21.345 Y25.8
