;FLAVOR:Marlin
;TIME:5659
;Filament used: 2.87498m
;Layer height: 0.35
;Generated with Cura_SteamEngine 3.2.1
G1 Z5 F200
M104 S205
M109 S205
M82 ;absolute extrusion mode
G21 ; set units to millimeters
G28 Z0
;LAYER_COUNT:72
;LAYER:0
M107
G0 F900 X8.963 Y16.887 Z0.3
;TYPE:SKIRT
G1 F600 X9.387 Y16.663 E0.02117
G1 X9.842 Y16.514 E0.04232
G1 X10.511 Y16.435 E0.07206
G1 X12.428 Y16.436 E0.15671
G1 X12.916 Y16.478 E0.17834
G1 X15.877 Y16.989 E0.31102
G1 X21.353 Y17.691 E0.55481
G1 X26.832 Y18.08 E0.79735
G1 X32.338 Y18.159 E1.04051
G1 X37.806 Y17.929 E1.28217
G1 X43.288 Y17.385 E1.52543
G1 X49.136 Y16.47 E1.7868
G1 X49.581 Y16.435 E1.80651
G1 X51.491 Y16.435 E1.89085
G1 X51.968 Y16.475 E1.91199
G1 X52.433 Y16.594 E1.93318
G1 X52.871 Y16.788 E1.95434
G1 X53.271 Y17.052 E1.9755
G1 X53.621 Y17.379 E1.99665
G1 X53.912 Y17.759 E2.01779
G1 X54.136 Y18.183 E2.03896
G1 X54.286 Y18.638 E2.06012
G1 X54.366 Y19.313 E2.09013
G1 X54.364 Y21.439 E2.18401
G1 X54.357 Y21.639 E2.19284
G1 X53.961 Y27.237 E2.44065
G1 X53.875 Y31.317 E2.62086
G1 X53.865 Y39.396 E2.9776
G1 X53.824 Y39.873 E2.99874
G1 X53.705 Y40.337 E3.01989
G1 X53.511 Y40.775 E3.04105
G1 X53.246 Y41.174 E3.0622
G1 X52.918 Y41.524 E3.08338
G1 X52.538 Y41.815 E3.10451
G1 X52.114 Y42.038 E3.12567
G1 X51.659 Y42.188 E3.14682
G1 X50.99 Y42.267 E3.17657
G1 X11.009 Y42.267 E4.94202
G1 X10.532 Y42.227 E4.96315
G1 X10.067 Y42.108 E4.98435
G1 X9.629 Y41.914 E5.0055
G1 X9.229 Y41.65 E5.02666
G1 X8.879 Y41.323 E5.04781
G1 X8.588 Y40.943 E5.06895
G1 X8.364 Y40.519 E5.09012
G1 X8.214 Y40.064 E5.11128
G1 X8.134 Y39.395 E5.14103
G1 X8.125 Y31.359 E5.49588
G1 X7.968 Y25.799 E5.74149
G1 X7.641 Y21.584 E5.92817
G1 X7.632 Y21.358 E5.93816
G1 X7.635 Y19.306 E6.02877
G1 X7.676 Y18.828 E6.04995
G1 X7.795 Y18.364 E6.0711
G1 X7.99 Y17.927 E6.09224
G1 X8.255 Y17.527 E6.11342
G1 X8.582 Y17.177 E6.13457
G1 X8.963 Y16.887 E6.15572
G0 F900 X9.297 Y17.095
G1 F600 X9.709 Y16.916 E6.17555
G1 X10.145 Y16.811 E6.19536
G1 X10.511 Y16.785 E6.21156
G1 X12.428 Y16.786 E6.29621
G1 X12.856 Y16.823 E6.31518
G1 X15.816 Y17.334 E6.44781
G1 X21.321 Y18.039 E6.69289
G1 X26.819 Y18.43 E6.93627
G1 X32.33 Y18.509 E7.17965
G1 X37.838 Y18.277 E7.42308
G1 X43.325 Y17.733 E7.66656
G1 X49.191 Y16.815 E7.92874
G1 X49.581 Y16.785 E7.94601
G1 X51.491 Y16.785 E8.03035
G1 X51.938 Y16.825 E8.05017
G1 X52.371 Y16.943 E8.06999
G1 X52.777 Y17.137 E8.08986
G1 X53.141 Y17.399 E8.10966
G1 X53.454 Y17.721 E8.12949
G1 X53.704 Y18.094 E8.14932
G1 X53.884 Y18.505 E8.16913
G1 X53.989 Y18.942 E8.18897
G1 X54.016 Y19.312 E8.20536
G1 X54.014 Y21.438 E8.29923
G1 X54.008 Y21.614 E8.30701
G1 X53.611 Y27.225 E8.5554
G1 X53.525 Y31.316 E8.73608
G1 X53.515 Y39.395 E9.09283
G1 X53.475 Y39.842 E9.11265
G1 X53.355 Y40.275 E9.13249
G1 X53.162 Y40.68 E9.1523
G1 X52.899 Y41.045 E9.17216
G1 X52.576 Y41.357 E9.19199
G1 X52.203 Y41.606 E9.2118
G1 X51.792 Y41.786 E9.23161
G1 X51.355 Y41.89 E9.25144
G1 X50.99 Y41.917 E9.26761
G1 X11.009 Y41.917 E11.03305
G1 X10.562 Y41.877 E11.05287
G1 X10.129 Y41.759 E11.07269
G1 X9.723 Y41.565 E11.09256
G1 X9.359 Y41.303 E11.11236
G1 X9.046 Y40.981 E11.13219
G1 X8.796 Y40.608 E11.15202
G1 X8.616 Y40.197 E11.17183
G1 X8.511 Y39.76 E11.19168
G1 X8.484 Y39.395 E11.20784
G1 X8.475 Y31.349 E11.56312
G1 X8.318 Y25.782 E11.80905
G1 X7.99 Y21.557 E11.99617
G1 X7.982 Y21.358 E12.00497
G1 X7.985 Y19.306 E12.09558
G1 X8.026 Y18.859 E12.1154
G1 X8.145 Y18.426 E12.13523
G1 X8.339 Y18.021 E12.15506
G1 X8.601 Y17.657 E12.17486
G1 X8.924 Y17.345 E12.19469
G1 X9.297 Y17.095 E12.21452
G0 F900 X9.264 Y17.527
G1 F600 X9.627 Y17.322 E12.23293
G1 X10.022 Y17.19 E12.25132
G1 X10.511 Y17.135 E12.27304
G1 X12.428 Y17.136 E12.35769
G1 X12.797 Y17.168 E12.37405
G1 X15.784 Y17.683 E12.50789
G1 X21.268 Y18.386 E12.75203
G1 X26.807 Y18.78 E12.99724
G1 X32.34 Y18.859 E13.24158
G1 X37.869 Y18.626 E13.48594
G1 X43.361 Y18.082 E13.72964
G1 X49.245 Y17.161 E13.99263
G1 X49.581 Y17.135 E14.00751
G1 X51.491 Y17.135 E14.09185
G1 X51.906 Y17.175 E14.11026
G1 X52.305 Y17.293 E14.12863
G1 X52.675 Y17.485 E14.14704
G1 X53.001 Y17.745 E14.16545
G1 X53.272 Y18.061 E14.18383
G1 X53.477 Y18.424 E14.20224
G1 X53.61 Y18.819 E14.22065
G1 X53.666 Y19.312 E14.24255
G1 X53.664 Y21.438 E14.33643
G1 X53.659 Y21.589 E14.3431
G1 X53.263 Y27.193 E14.59118
G1 X53.175 Y31.359 E14.77518
G1 X53.165 Y39.395 E15.13002
G1 X53.125 Y39.809 E15.14839
G1 X53.006 Y40.209 E15.16682
G1 X52.813 Y40.578 E15.18521
G1 X52.553 Y40.904 E15.20362
G1 X52.236 Y41.174 E15.22201
G1 X51.874 Y41.379 E15.24038
G1 X51.479 Y41.511 E15.25877
G1 X50.99 Y41.567 E15.2805
G1 X11.009 Y41.567 E17.04595
G1 X10.594 Y41.527 E17.06436
G1 X10.195 Y41.409 E17.08273
G1 X9.825 Y41.217 E17.10114
G1 X9.499 Y40.957 E17.11955
G1 X9.228 Y40.641 E17.13793
G1 X9.023 Y40.278 E17.15634
G1 X8.89 Y39.883 E17.17475
G1 X8.834 Y39.394 E17.19648
G1 X8.825 Y31.34 E17.55212
G1 X8.667 Y25.765 E17.7984
G1 X8.339 Y21.53 E17.98596
G1 X8.332 Y21.359 E17.99352
G1 X8.335 Y19.307 E18.08413
G1 X8.376 Y18.892 E18.10254
G1 X8.494 Y18.493 E18.12092
G1 X8.687 Y18.123 E18.13934
G1 X8.947 Y17.798 E18.15772
G1 X9.264 Y17.527 E18.17614
G1 F1500 E11.67614
G0 F900 X10.689 Y18.636
G0 X10.689 Y19.49
G0 X17.875 Y21.783
G0 X22.705 Y23.11
G0 X22.724 Y23.012
;TYPE:WALL-OUTER
G1 F1500 E18.17614
G1 F600 X26.842 Y23.622 E18.35996
G1 X31 Y23.826 E18.54379
G1 X35.159 Y23.622 E18.72766
G1 X39.277 Y23.012 E18.91148
G1 X43.316 Y22 E19.09535
G1 X47.236 Y20.597 E19.27919
G1 X49.605 Y19.476 E19.39492
G1 X51.325 Y19.476 E19.47087
G1 X51.325 Y21.314 E19.55203
G1 X48.157 Y22.813 E19.70679
G1 X44.013 Y24.296 E19.90114
G1 X39.742 Y25.366 E20.09557
G1 X35.397 Y26.01 E20.28953
G1 X31 Y26.226 E20.48392
G1 X26.604 Y26.01 E20.67827
G1 X22.259 Y25.366 E20.87223
G1 X17.988 Y24.296 E21.06665
G1 X13.844 Y22.813 E21.261
G1 X10.675 Y21.314 E21.4158
G1 X10.675 Y19.476 E21.49696
G1 X12.396 Y19.476 E21.57296
G1 X14.765 Y20.597 E21.68869
G1 X18.685 Y22 E21.87254
G1 X22.724 Y23.012 E22.0564
G0 F900 X22.897 Y23.037
G0 X22.658 Y23.346
;TYPE:SKIN
G1 F600 X26.809 Y23.96 E22.24169
G1 X31 Y24.166 E22.42698
G1 X35.192 Y23.96 E22.61231
G1 X39.343 Y23.346 E22.7976
G1 X43.415 Y22.326 E22.98296
G1 X47.366 Y20.912 E23.16826
G1 X49.681 Y19.816 E23.28136
G1 X50.985 Y19.816 E23.33894
G1 X50.985 Y21.098 E23.39555
G1 X48.027 Y22.498 E23.54006
G1 X43.916 Y23.97 E23.73288
G1 X39.67 Y25.033 E23.92615
G1 X35.371 Y25.67 E24.11806
G1 X31 Y25.886 E24.3113
G1 X26.63 Y25.67 E24.50451
G1 X22.331 Y25.033 E24.69641
G1 X18.085 Y23.97 E24.88969
G1 X13.974 Y22.498 E25.0825
G1 X11.015 Y21.098 E25.22705
G1 X11.015 Y19.816 E25.28366
G1 X12.32 Y19.816 E25.34129
G1 X14.635 Y20.912 E25.45439
G1 X18.586 Y22.326 E25.63969
G1 X22.658 Y23.346 E25.82505
G0 F900 X11.172 Y20.577
G1 F600 X11.969 Y21.374 E25.87482
G1 X12.03 Y21.435
G0 F900 X12.91 Y21.819
G1 F600 X11.172 Y20.082 E25.98333
G1 X11.111 Y20.021
G0 F900 X11.559 Y19.973
G1 F600 X13.85 Y22.264 E26.12639
G1 X13.911 Y22.325
G0 F900 X14.653 Y22.572
G1 F600 X12.054 Y19.973 E26.28869
G1 X11.993 Y19.912
G0 F900 X12.785 Y20.209
G1 F600 X15.424 Y22.848 E26.45349
G1 X15.485 Y22.909
G0 F900 X16.195 Y23.125
G1 F600 X13.725 Y20.655 E26.60774
G1 X13.664 Y20.594
G0 F900 X14.649 Y21.083
G1 F600 X16.966 Y23.4 E26.75243
G1 X17.027 Y23.461
G0 F900 X17.737 Y23.676
G1 F600 X15.42 Y21.36 E26.89709
G1 X15.359 Y21.299
G0 F900 X16.191 Y21.636
G1 F600 X18.453 Y23.898 E27.03835
G1 X18.514 Y23.959
G0 F900 X19.113 Y24.063
G1 F600 X16.962 Y21.911 E27.1727
G1 X16.901 Y21.85
G0 F900 X17.732 Y22.187
G1 F600 X19.774 Y24.229 E27.30022
G1 X19.835 Y24.29
G0 F900 X20.434 Y24.394
G1 F600 X18.504 Y22.464 E27.42074
G1 X18.443 Y22.403
G0 F900 X19.169 Y22.634
G1 F600 X21.094 Y24.559 E27.54096
G1 X21.155 Y24.62
G0 F900 X21.754 Y24.724
G1 F600 X19.83 Y22.799 E27.66114
G1 X19.769 Y22.738
G0 F900 X20.49 Y22.965
G1 F600 X22.409 Y24.884 E27.78097
G1 X22.47 Y24.945
G0 F900 X22.99 Y24.97
G1 F600 X21.15 Y23.13 E27.89588
G1 X21.089 Y23.069
G0 F900 X21.811 Y23.296
G1 F600 X23.571 Y25.056 E28.00579
G1 X23.632 Y25.117
G0 F900 X24.152 Y25.142
G1 F600 X22.471 Y23.461 E28.11076
G1 X22.41 Y23.4
G0 F900 X23.071 Y23.566
G1 F600 X24.733 Y25.228 E28.21455
G1 X24.794 Y25.289
G0 F900 X25.314 Y25.314
G1 F600 X23.652 Y23.652 E28.31834
G1 X23.591 Y23.591
G0 F900 X24.233 Y23.738
G1 F600 X25.895 Y25.4 E28.42212
G1 X25.956 Y25.461
G0 F900 X26.476 Y25.486
G1 F600 X24.814 Y23.824 E28.52591
G1 X24.753 Y23.763
G0 F900 X25.395 Y23.91
G1 F600 X27.015 Y25.53 E28.62708
G1 X27.076 Y25.591
G0 F900 X27.535 Y25.555
G1 F600 X25.976 Y23.996 E28.72443
G1 X25.915 Y23.935
G0 F900 X26.557 Y24.082
G1 F600 X28.056 Y25.581 E28.81804
G1 X28.117 Y25.642
G0 F900 X28.577 Y25.607
G1 F600 X27.102 Y24.132 E28.91015
G1 X27.041 Y24.071
G0 F900 X27.623 Y24.158
G1 F600 X29.098 Y25.633 E29.00226
G1 X29.159 Y25.694
G0 F900 X29.619 Y25.659
G1 F600 X28.143 Y24.183 E29.09443
G1 X28.082 Y24.122
G0 F900 X28.663 Y24.209
G1 F600 X30.139 Y25.684 E29.18658
G1 X30.2 Y25.745
G0 F900 X30.66 Y25.711
G1 F600 X29.185 Y24.235 E29.27872
G1 X29.124 Y24.174
G0 F900 X29.705 Y24.26
G1 F600 X31.164 Y25.719 E29.36983
G1 X31.225 Y25.78
G0 F900 X31.635 Y25.696
G1 F600 X30.225 Y24.286 E29.45788
G1 X30.164 Y24.225
G0 F900 X30.746 Y24.311
G1 F600 X32.107 Y25.672 E29.54287
G1 X32.168 Y25.733
G0 F900 X32.579 Y25.649
G1 F600 X31.242 Y24.312 E29.62636
G1 X31.181 Y24.251
G0 F900 X31.713 Y24.289
G1 F600 X33.05 Y25.626 E29.70986
G1 X33.111 Y25.687
G0 F900 X33.522 Y25.602
G1 F600 X32.185 Y24.265 E29.79335
G1 X32.124 Y24.204
G0 F900 X32.657 Y24.242
G1 F600 X33.994 Y25.579 E29.87684
G1 X34.055 Y25.64
G0 F900 X34.465 Y25.556
G1 F600 X33.129 Y24.219 E29.9603
G1 X33.068 Y24.158
G0 F900 X33.601 Y24.196
G1 F600 X34.937 Y25.532 E30.04373
G1 X34.998 Y25.593
G0 F900 X35.404 Y25.505
G1 F600 X34.072 Y24.173 E30.12691
G1 X34.011 Y24.112
G0 F900 X34.544 Y24.149
G1 F600 X35.835 Y25.44 E30.20753
G1 X35.896 Y25.501
G0 F900 X36.266 Y25.377
G1 F600 X35.016 Y24.127 E30.28559
G1 X34.955 Y24.066
G0 F900 X35.464 Y24.079
G1 F600 X36.698 Y25.313 E30.36265
G1 X36.759 Y25.374
G0 F900 X37.128 Y25.249
G1 F600 X35.895 Y24.016 E30.43965
G1 X35.834 Y23.955
G0 F900 X36.326 Y23.951
G1 F600 X37.56 Y25.185 E30.51671
G1 X37.621 Y25.246
G0 F900 X37.991 Y25.122
G1 F600 X36.757 Y23.888 E30.59377
G1 X36.696 Y23.827
G0 F900 X37.188 Y23.824
G1 F600 X38.422 Y25.057 E30.6708
G1 X38.483 Y25.118
G0 F900 X38.853 Y24.994
G1 F600 X37.62 Y23.76 E30.74783
G1 X37.559 Y23.699
G0 F900 X38.051 Y23.697
G1 F600 X39.284 Y24.93 E30.82483
G1 X39.345 Y24.991
G0 F900 X39.708 Y24.859
G1 F600 X38.482 Y23.633 E30.90139
G1 X38.421 Y23.572
G0 F900 X38.914 Y23.569
G1 F600 X40.104 Y24.76 E30.97573
G1 X40.165 Y24.821
G0 F900 X40.5 Y24.661
G1 F600 X39.345 Y23.506 E31.04786
G1 X39.284 Y23.445
G0 F900 X39.743 Y23.409
G1 F600 X40.896 Y24.562 E31.11986
G1 X40.957 Y24.623
G0 F900 X41.292 Y24.463
G1 F600 X40.139 Y23.31 E31.19186
G1 X40.078 Y23.249
G0 F900 X40.534 Y23.21
G1 F600 X41.688 Y24.364 E31.26393
G1 X41.749 Y24.425
G0 F900 X42.084 Y24.265
G1 F600 X40.93 Y23.111 E31.33599
G1 X40.869 Y23.05
G0 F900 X41.326 Y23.012
G1 F600 X42.48 Y24.166 E31.40806
G1 X42.541 Y24.227
G0 F900 X42.876 Y24.067
G1 F600 X41.722 Y22.913 E31.48012
G1 X41.661 Y22.852
G0 F900 X42.118 Y22.814
G1 F600 X43.271 Y23.967 E31.55212
G1 X43.332 Y24.028
G0 F900 X43.667 Y23.868
G1 F600 X42.514 Y22.715 E31.62413
G1 X42.453 Y22.654
G0 F900 X42.91 Y22.616
G1 F600 X44.047 Y23.753 E31.69513
G1 X44.108 Y23.814
G0 F900 X44.412 Y23.623
G1 F600 X43.306 Y22.517 E31.7642
G1 X43.245 Y22.456
G0 F900 X43.682 Y22.399
G1 F600 X44.776 Y23.492 E31.83248
G1 X44.837 Y23.553
G0 F900 X45.141 Y23.362
G1 F600 X44.047 Y22.268 E31.9008
G1 X43.986 Y22.207
G0 F900 X44.411 Y22.138
G1 F600 X45.505 Y23.231 E31.96909
G1 X45.566 Y23.292
G0 F900 X45.87 Y23.101
G1 F600 X44.776 Y22.007 E32.0374
G1 X44.715 Y21.946
G0 F900 X45.14 Y21.877
G1 F600 X46.234 Y22.971 E32.10572
G1 X46.295 Y23.032
G0 F900 X46.599 Y22.84
G1 F600 X45.505 Y21.746 E32.17404
G1 X45.444 Y21.685
G0 F900 X45.87 Y21.616
G1 F600 X46.963 Y22.71 E32.24233
G1 X47.024 Y22.771
G0 F900 X47.328 Y22.58
G1 F600 X46.234 Y21.485 E32.31067
G1 X46.173 Y21.424
G0 F900 X46.599 Y21.355
G1 F600 X47.692 Y22.449 E32.37896
G1 X47.753 Y22.51
G0 F900 X48.05 Y22.312
G1 F600 X46.963 Y21.224 E32.44687
G1 X46.902 Y21.163
G0 F900 X47.328 Y21.094
G1 F600 X48.386 Y22.152 E32.51294
G1 X48.447 Y22.213
G0 F900 X48.722 Y21.993
G1 F600 X47.671 Y20.943 E32.57854
G1 X47.61 Y20.882
G0 F900 X48.007 Y20.783
G1 F600 X49.058 Y21.834 E32.64418
G1 X49.119 Y21.895
G0 F900 X49.394 Y21.675
G1 F600 X48.343 Y20.624 E32.70981
G1 X48.282 Y20.563
G0 F900 X48.679 Y20.465
G1 F600 X49.73 Y21.516 E32.77544
G1 X49.791 Y21.577
G0 F900 X50.065 Y21.357
G1 F600 X49.015 Y20.306 E32.84104
G1 X48.954 Y20.245
G0 F900 X49.351 Y20.147
G1 F600 X50.401 Y21.198 E32.90664
G1 X50.462 Y21.259
G0 F900 X50.737 Y21.039
G1 F600 X49.686 Y19.988 E32.97228
G1 X49.625 Y19.927
G0 F900 X50.167 Y19.974
G1 F600 X50.826 Y20.632 E33.0134
G1 X50.887 Y20.693
G0 F900 X50.826 Y20.137
G1 F600 X50.662 Y19.974 E33.02361
G1 F1500 E26.52361
G0 F900 X47.251 Y20.633
G0 X46.913 Y19.822
G0 X49.418 Y18.637
G0 X52.153 Y18.648
G0 X52.158 Y21.842
G0 X51.653 Y40.054
G0 X19.033 Y40.066
G0 X19.033 Y39.186
G0 X13.755 Y36.646
G0 X13.825 Y36.576
;TYPE:WALL-OUTER
G1 F1500 E33.02361
G1 F600 X48.175 Y36.576 E34.54041
G1 X48.175 Y23.678 E35.10994
G1 X48.288 Y23.638 E35.11524
G1 X50.576 Y22.556 E35.227
G1 X50.825 Y22.438 E35.23916
G1 X50.825 Y22.713 E35.24617
G1 X50.825 Y22.714 E35.24622
G1 X50.825 Y39.226 E35.97534
G1 X11.175 Y39.226 E37.72617
G1 X11.175 Y22.714 E38.45529
G1 X11.175 Y22.713 E38.45534
G1 X11.175 Y22.438 E38.46748
G1 X11.424 Y22.555 E38.47451
G1 X13.713 Y23.638 E38.58632
G1 X13.825 Y23.678 E38.59158
G1 X13.825 Y36.576 E39.16111
G0 F900 X14 Y36.576
G0 X13.485 Y36.916
;TYPE:SKIN
G1 F600 X48.515 Y36.916 E40.70794
G1 X48.515 Y23.907 E41.28238
G1 X50.485 Y22.975 E41.37861
G1 X50.485 Y38.886 E42.0812
G1 X11.515 Y38.886 E43.802
G1 X11.515 Y22.975 E44.50458
G1 X13.485 Y23.906 E44.6008
G1 X13.485 Y36.916 E45.17528
G0 F900 X11.998 Y38.726
G1 F600 X11.672 Y38.401 E45.19561
G0 F900 X11.672 Y37.906
G1 F600 X12.493 Y38.726 E45.24685
G1 X12.554 Y38.787
G0 F900 X12.988 Y38.726
G1 F600 X11.672 Y37.411 E45.329
G1 X11.611 Y37.35
G0 F900 X11.672 Y36.916
G1 F600 X13.483 Y38.726 E45.44206
G1 X13.544 Y38.787
G0 F900 X13.978 Y38.726
G1 F600 X11.672 Y36.421 E45.58603
G1 X11.611 Y36.36
G0 F900 X11.672 Y35.926
G1 F600 X14.473 Y38.726 E45.76092
G1 X14.534 Y38.787
G0 F900 X14.968 Y38.726
G1 F600 X11.672 Y35.431 E45.96671
G1 X11.611 Y35.37
G0 F900 X11.672 Y34.936
G1 F600 X13.326 Y36.59 E46.07
G1 X13.387 Y36.651
G0 F900 X13.326 Y36.095
G1 F600 X11.672 Y34.441 E46.17329
G1 X11.611 Y34.38
G0 F900 X11.672 Y33.946
G1 F600 X13.326 Y35.6 E46.27658
G1 X13.387 Y35.661
G0 F900 X13.326 Y35.105
G1 F600 X11.672 Y33.451 E46.37987
G1 X11.611 Y33.39
G0 F900 X11.672 Y32.956
G1 F600 X13.326 Y34.61 E46.48316
G1 X13.387 Y34.671
G0 F900 X13.326 Y34.115
G1 F600 X11.672 Y32.461 E46.58644
G1 X11.611 Y32.4
G0 F900 X11.672 Y31.966
G1 F600 X13.326 Y33.62 E46.68973
G1 X13.387 Y33.681
G0 F900 X13.326 Y33.125
G1 F600 X11.672 Y31.471 E46.79302
G1 X11.611 Y31.41
G0 F900 X11.672 Y30.976
G1 F600 X13.326 Y32.63 E46.89631
G1 X13.387 Y32.691
G0 F900 X13.326 Y32.135
G1 F600 X11.672 Y30.481 E46.9996
G1 X11.611 Y30.42
G0 F900 X11.672 Y29.986
G1 F600 X13.326 Y31.64 E47.10289
G1 X13.387 Y31.701
G0 F900 X13.326 Y31.145
G1 F600 X11.672 Y29.492 E47.20614
G1 X11.611 Y29.431
G0 F900 X11.672 Y28.997
G1 F600 X13.326 Y30.65 E47.3094
G1 X13.387 Y30.711
G0 F900 X13.326 Y30.155
G1 F600 X11.672 Y28.502 E47.41266
G1 X11.611 Y28.441
G0 F900 X11.672 Y28.007
G1 F600 X13.326 Y29.661 E47.51595
G1 X13.387 Y29.722
G0 F900 X13.326 Y29.166
G1 F600 X11.672 Y27.512 E47.61923
G1 X11.611 Y27.451
G0 F900 X11.672 Y27.017
G1 F600 X13.326 Y28.671 E47.72252
G1 X13.387 Y28.732
G0 F900 X13.326 Y28.176
G1 F600 X11.672 Y26.522 E47.82581
G1 X11.611 Y26.461
G0 F900 X11.672 Y26.027
G1 F600 X13.326 Y27.681 E47.9291
G1 X13.387 Y27.742
G0 F900 X13.326 Y27.186
G1 F600 X11.672 Y25.532 E48.03239
G1 X11.611 Y25.471
G0 F900 X11.672 Y25.037
G1 F600 X13.326 Y26.691 E48.13568
G1 X13.387 Y26.752
